assets/img/icono-whatsapp.svg

<svg width="88" height="88" viewBox="0 0 88 88" fill="none" xmlns="http://www.w3.org/2000/svg">
<g filter="url(#filter0_d)">
<circle cx="44" cy="40" r="40" fill="url(#paint0_linear)"/>
<path d="M62.75 40.1587C62.75 49.9106 54.5082 57.8162 44.3393 57.8162C41.1123 57.8162 38.081 57.0183 35.4421 55.6211L25.25 58.75L28.5724 49.2735C26.8971 46.6139 25.9323 43.4909 25.9323 40.1575C25.9336 30.4056 34.1729 22.5 44.3418 22.5C54.5095 22.5024 62.75 30.4067 62.75 40.1587ZM44.3381 25.3156C35.8041 25.3156 28.8622 31.9753 28.8622 40.1622C28.8622 43.4105 29.9578 46.4176 31.8104 48.8645L29.8783 54.3764L35.8237 52.5501C38.2693 54.101 41.1955 55.0041 44.3381 55.0041C52.8721 55.0041 59.8165 48.3456 59.8165 40.1587C59.8189 31.9753 52.8733 25.3156 44.3381 25.3156ZM53.6364 44.2261C53.5214 44.0476 53.2206 43.9389 52.7706 43.7214C52.3219 43.5039 50.1 42.4578 49.6879 42.3159C49.2722 42.1705 48.9713 42.0972 48.6705 42.5311C48.3734 42.9649 47.5076 43.9389 47.2423 44.2297C46.9794 44.5193 46.7165 44.5559 46.2653 44.342C45.814 44.1221 44.3589 43.6682 42.6347 42.1942C41.2933 41.0452 40.3872 39.6303 40.1255 39.1965C39.8602 38.7639 40.0986 38.5298 40.3224 38.3147C40.5242 38.1196 40.7736 37.8088 40.9998 37.5546C41.226 37.3028 41.3006 37.1244 41.451 36.8347C41.599 36.5451 41.5244 36.2934 41.4131 36.0747C41.3006 35.8572 40.3994 33.7295 40.0216 32.8631C39.6462 31.9978 39.2708 32.1408 39.0066 32.1408C38.7437 32.1408 38.4429 32.1054 38.1421 32.1054C37.8413 32.1054 37.3522 32.2106 36.9401 32.6444C36.528 33.0782 35.3614 34.1243 35.3614 36.2544C35.3614 38.3868 36.9768 40.4424 37.203 40.7308C37.4304 41.018 40.3261 45.5323 44.9128 47.2652C49.502 48.9969 49.502 48.4189 50.3287 48.3456C51.1577 48.2723 52.9993 47.2995 53.3735 46.29C53.7501 45.2758 53.7501 44.407 53.6364 44.2261Z" fill="white"/>
</g>
<defs>
<filter id="filter0_d" x="0" y="0" width="88" height="88" filterUnits="userSpaceOnUse" color-interpolation-filters="sRGB">
<feFlood flood-opacity="0" result="BackgroundImageFix"/>
<feColorMatrix in="SourceAlpha" type="matrix" values="0 0 0 0 0 0 0 0 0 0 0 0 0 0 0 0 0 0 127 0"/>
<feOffset dy="4"/>
<feGaussianBlur stdDeviation="2"/>
<feColorMatrix type="matrix" values="0 0 0 0 0 0 0 0 0 0 0 0 0 0 0 0 0 0 0.25 0"/>
<feBlend mode="normal" in2="BackgroundImageFix" result="effect1_dropShadow"/>
<feBlend mode="normal" in="SourceGraphic" in2="effect1_dropShadow" result="shape"/>
</filter>
<linearGradient id="paint0_linear" x1="44" y1="0" x2="44" y2="80" gradientUnits="userSpaceOnUse">
<stop stop-color="#00C4D1"/>
<stop offset="1" stop-color="#9D3BFF"/>
</linearGradient>
</defs>
</svg>

<svg xmlns="http://www.w3.org/2000/svg" width="88" height="88" fill="none" xmlns:v="https://vecta.io/nano"><g filter="url(#A)"><circle cx="44" cy="40" r="40" fill="url(#B)"/><path d="M62.75 40.16c0 9.752-8.242 17.658-18.41 17.658-3.227 0-6.258-.798-8.897-2.195L25.25 58.75l3.322-9.477c-1.675-2.66-2.64-5.783-2.64-9.116.001-9.752 8.24-17.657 18.41-17.657S62.75 30.407 62.75 40.16zM44.338 25.316c-8.534 0-15.476 6.66-15.476 14.847 0 3.248 1.096 6.255 2.948 8.702l-1.932 5.512 5.945-1.826c2.446 1.55 5.372 2.454 8.514 2.454 8.534 0 15.478-6.66 15.478-14.845s-6.943-14.843-15.478-14.843zm9.298 18.91c-.115-.178-.416-.287-.866-.505s-2.67-1.264-3.083-1.406-.717-.22-1.017.215-1.163 1.408-1.428 1.7-.526.326-.977.112c-.45-.22-1.906-.674-3.63-2.148-1.34-1.15-2.248-2.564-2.51-2.998s-.027-.667.197-.882c.202-.195.45-.506.677-.76s.3-.43.45-.72.073-.54-.038-.76-1.014-2.345-1.392-3.212-.75-.722-1.015-.722-.564-.035-.864-.035-.8.105-1.202.54-1.58 1.48-1.58 3.6 1.615 4.188 1.842 4.476 3.123 4.8 7.7 6.534 4.59 1.154 5.416 1.08S53 47.3 53.374 46.3s.377-1.883.263-2.064z" fill="#fff"/></g><defs><filter id="A" x="0" y="0" width="88" height="88" filterUnits="userSpaceOnUse" color-interpolation-filters="sRGB"><feFlood flood-opacity="0" result="A"/><feColorMatrix in="SourceAlpha" values="0 0 0 0 0 0 0 0 0 0 0 0 0 0 0 0 0 0 127 0"/><feOffset dy="4"/><feGaussianBlur stdDeviation="2"/><feColorMatrix values="0 0 0 0 0 0 0 0 0 0 0 0 0 0 0 0 0 0 0.25 0"/><feBlend in2="A"/><feBlend in="SourceGraphic"/></filter><linearGradient id="B" x1="44" y1="0" x2="44" y2="80" gradientUnits="userSpaceOnUse"><stop stop-color="#00c4d1"/><stop offset="1" stop-color="#9d3bff"/></linearGradient></defs></svg>
